icon/pk/single-bed.svg

<svg viewBox="0 0 48 48" fill="none" xmlns="http://www.w3.org/2000/svg" height="1em" width="1em">
  <path d="M8 12C8 10.3431 9.34315 9 11 9H37C38.6569 9 40 10.3431 40 12V23H8V12Z" stroke="black" stroke-width="4" stroke-linecap="round" stroke-linejoin="round"/>
  <path d="M6 35V39" stroke="black" stroke-width="4" stroke-linecap="round" stroke-linejoin="round"/>
  <path d="M42 35V39" stroke="black" stroke-width="4" stroke-linecap="round" stroke-linejoin="round"/>
  <path d="M29 18H19C17.3431 18 16 19.3431 16 21V23H32V21C32 19.3431 30.6569 18 29 18Z" fill="#2F88FF" stroke="black" stroke-width="4" stroke-linecap="round" stroke-linejoin="round"/>
  <path d="M4 26C4 24.3431 5.34315 23 7 23H41C42.6569 23 44 24.3431 44 26V35H4V26Z" stroke="black" stroke-width="4" stroke-linecap="round" stroke-linejoin="round"/>
</svg>

<svg width="48" height="48" fill="none" xmlns="http://www.w3.org/2000/svg"><path d="M8 12a3 3 0 0 1 3-3h26a3 3 0 0 1 3 3v11H8V12ZM6 35v4M42 35v4" stroke="#000" stroke-width="4" stroke-linecap="round" stroke-linejoin="round"/><path d="M29 18H19a3 3 0 0 0-3 3v2h16v-2a3 3 0 0 0-3-3Z" fill="#2F88FF" stroke="#000" stroke-width="4" stroke-linecap="round" stroke-linejoin="round"/><path d="M4 26a3 3 0 0 1 3-3h34a3 3 0 0 1 3 3v9H4v-9Z" stroke="#000" stroke-width="4" stroke-linecap="round" stroke-linejoin="round"/></svg>
